server/uploads/eletronicos.svg

<svg width="64" height="64" viewBox="0 0 64 64" fill="none" xmlns="http://www.w3.org/2000/svg">
<g clip-path="url(#clip0)">
<path d="M46 26H18C16.895 26 16 24.9558 16 23.6667V7.33333C16 6.04419 16.895 5 18 5H46C47.105 5 48 6.04419 48 7.33333V23.6667C48 24.9558 47.105 26 46 26Z" fill="#34CB79"/>
<path d="M16.5158 0.5H47.4835C50.0531 0.5 52.1448 2.59167 52.1448 5.16129V26.5953C52.1448 28.1856 51.7687 29.7814 51.057 31.2043L51.0568 31.2047C50.4186 32.4838 50.0803 33.9125 50.0803 35.3402V58.8387C50.0803 61.4083 47.9886 63.5 45.419 63.5H18.5803C16.0107 63.5 13.919 61.4083 13.919 58.8387V35.3402C13.919 33.9136 13.5808 32.4838 12.9424 31.2055L12.9424 31.2055C12.2306 29.7804 11.8545 28.1855 11.8545 26.5953V5.16129C11.8545 2.59167 13.9462 0.5 16.5158 0.5ZM50.1036 30.7301L50.1037 30.7299C50.7421 29.4517 51.0803 28.0229 51.0803 26.5953V5.16129C51.0803 3.17799 49.4668 1.56452 47.4835 1.56452H16.5158C14.5325 1.56452 12.919 3.17799 12.919 5.16129V26.5953C12.919 28.0229 13.2573 29.4517 13.8956 30.7299L13.8957 30.7301C14.6074 32.1541 14.9835 33.7499 14.9835 35.3402V58.8387C14.9835 60.822 16.597 62.4355 18.5803 62.4355H45.419C47.4023 62.4355 49.0158 60.822 49.0158 58.8387V35.3402C49.0158 33.7499 49.3919 32.1541 50.1036 30.7301Z" fill="#322153" stroke="#322153"/>
<path d="M19.1133 57.8065V58.3065H19.6133H23.7444H24.2449L24.2444 57.806L24.2424 55.7415L24.2419 55.242H23.7424H19.6133H19.1133V55.742V57.8065ZM19.6133 54.1775H23.7424C24.6048 54.1775 25.3069 54.8795 25.3069 55.742V57.8065C25.3069 58.669 24.6048 59.371 23.7424 59.371H19.6133C18.7509 59.371 18.0488 58.669 18.0488 57.8065V55.742C18.0488 54.8795 18.7509 54.1775 19.6133 54.1775Z" fill="#322153" stroke="#322153"/>
<path d="M19.1133 49.5485V50.0485H19.6133H23.7444H24.2449L24.2444 49.548L24.2424 47.4835L24.2419 46.984H23.7424H19.6133H19.1133V47.484V49.5485ZM19.6133 45.9194H23.7424C24.6048 45.9194 25.3069 46.6215 25.3069 47.484V49.5485C25.3069 50.4109 24.6048 51.113 23.7424 51.113H19.6133C18.7509 51.113 18.0488 50.4109 18.0488 49.5485V47.484C18.0488 46.6215 18.7509 45.9194 19.6133 45.9194Z" fill="#322153" stroke="#322153"/>
<path d="M19.1133 41.2904V41.7904H19.6133H23.7444H24.2449L24.2444 41.2899L24.2424 39.2254L24.2419 38.7259H23.7424H19.6133H19.1133V39.2259V41.2904ZM19.6133 37.6614H23.7424C24.6048 37.6614 25.3069 38.3634 25.3069 39.2259V41.2904C25.3069 42.1529 24.6048 42.8549 23.7424 42.8549H19.6133C18.7509 42.8549 18.0488 42.1529 18.0488 41.2904V39.2259C18.0488 38.3634 18.7509 37.6614 19.6133 37.6614Z" fill="#322153" stroke="#322153"/>
<path d="M29.4356 57.8065V58.3065H29.9356H34.0667H34.5671L34.5667 57.806L34.5646 55.7415L34.5642 55.242H34.0646H29.9356H29.4356V55.742V57.8065ZM29.9356 54.1775H34.0646C34.9271 54.1775 35.6292 54.8795 35.6292 55.742V57.8065C35.6292 58.669 34.9271 59.371 34.0646 59.371H29.9356C29.0731 59.371 28.3711 58.669 28.3711 57.8065V55.742C28.3711 54.8795 29.0731 54.1775 29.9356 54.1775Z" fill="#322153" stroke="#322153"/>
<path d="M29.4356 49.5485V50.0485H29.9356H34.0667H34.5671L34.5667 49.548L34.5646 47.4835L34.5642 46.984H34.0646H29.9356H29.4356V47.484V49.5485ZM29.9356 45.9194H34.0646C34.9271 45.9194 35.6292 46.6215 35.6292 47.484V49.5485C35.6292 50.4109 34.9271 51.113 34.0646 51.113H29.9356C29.0731 51.113 28.3711 50.4109 28.3711 49.5485V47.484C28.3711 46.6215 29.0731 45.9194 29.9356 45.9194Z" fill="#322153" stroke="#322153"/>
<path d="M29.4356 41.2904V41.7904H29.9356H34.0667H34.5671L34.5667 41.2899L34.5646 39.2254L34.5642 38.7259H34.0646H29.9356H29.4356V39.2259V41.2904ZM29.9356 37.6614H34.0646C34.9271 37.6614 35.6292 38.3634 35.6292 39.2259V41.2904C35.6292 42.1529 34.9271 42.8549 34.0646 42.8549H29.9356C29.0731 42.8549 28.3711 42.1529 28.3711 41.2904V39.2259C28.3711 38.3634 29.0731 37.6614 29.9356 37.6614Z" fill="#322153" stroke="#322153"/>
<path d="M28.9034 29.4033H35.097C36.528 29.4033 37.6937 30.5691 37.6937 32.0001C37.6937 33.4311 36.528 34.5969 35.097 34.5969H28.9034C27.4724 34.5969 26.3066 33.4311 26.3066 32.0001C26.3066 30.5691 27.4724 29.4033 28.9034 29.4033ZM28.9034 33.5324H35.097C35.943 33.5324 36.6292 32.8445 36.6292 32.0001C36.6292 31.1557 35.943 30.4678 35.097 30.4678H28.9034C28.0574 30.4678 27.3712 31.1557 27.3712 32.0001C27.3712 32.8445 28.0574 33.5324 28.9034 33.5324Z" fill="#322153" stroke="#322153"/>
<path d="M39.7579 57.8065V58.3065H40.2579H44.3889H44.8894L44.8889 57.806L44.8869 55.7415L44.8864 55.242H44.3869H40.2579H39.7579V55.742V57.8065ZM40.2579 54.1775H44.3869C45.2494 54.1775 45.9514 54.8795 45.9514 55.742V57.8065C45.9514 58.669 45.2494 59.371 44.3869 59.371H40.2579C39.3954 59.371 38.6934 58.669 38.6934 57.8065V55.742C38.6934 54.8795 39.3954 54.1775 40.2579 54.1775Z" fill="#322153" stroke="#322153"/>
<path d="M39.7579 49.5485V50.0485H40.2579H44.3889H44.8894L44.8889 49.548L44.8869 47.4835L44.8864 46.984H44.3869H40.2579H39.7579V47.484V49.5485ZM40.2579 45.9194H44.3869C45.2494 45.9194 45.9514 46.6215 45.9514 47.484V49.5485C45.9514 50.4109 45.2494 51.113 44.3869 51.113H40.2579C39.3954 51.113 38.6934 50.4109 38.6934 49.5485V47.484C38.6934 46.6215 39.3954 45.9194 40.2579 45.9194Z" fill="#322153" stroke="#322153"/>
<path d="M39.7579 41.2904V41.7904H40.2579H44.3889H44.8894L44.8889 41.2899L44.8869 39.2254L44.8864 38.7259H44.3869H40.2579H39.7579V39.2259V41.2904ZM40.2579 37.6614H44.3869C45.2494 37.6614 45.9514 38.3634 45.9514 39.2259V41.2904C45.9514 42.1529 45.2494 42.8549 44.3869 42.8549H40.2579C39.3954 42.8549 38.6934 42.1529 38.6934 41.2904V39.2259C38.6934 38.3634 39.3954 37.6614 40.2579 37.6614Z" fill="#322153" stroke="#322153"/>
<path d="M42.3223 30.4678H41.8223V30.9678V33.0324V33.5324H42.3223H44.3868H44.8868V33.0324V30.9678V30.4678H44.3868H42.3223ZM45.9514 29.4033V34.5969H40.7578V29.4033H45.9514Z" fill="#322153" stroke="#322153"/>
<path d="M21.6779 33.5324H22.1779V33.0324V30.9678V30.4678H21.6779H19.6133H19.1133V30.9678V33.0324V33.5324H19.6133H21.6779ZM18.0488 29.4033H23.2424V34.5969H18.0488V29.4033Z" fill="#322153" stroke="#322153"/>
</g>
<defs>
<clipPath id="clip0">
<rect width="64" height="64" fill="white"/>
</clipPath>
</defs>
</svg>

<?xml version="1.0" encoding="utf-8"?>
<!-- Generator: Adobe Illustrator 24.1.3, SVG Export Plug-In . SVG Version: 6.00 Build 0)  -->
<svg version="1.1" id="Camada_1" xmlns="http://www.w3.org/2000/svg" xmlns:xlink="http://www.w3.org/1999/xlink" x="0px" y="0px"
	 viewBox="0 0 64 64" style="enable-background:new 0 0 64 64;" xml:space="preserve">
<style type="text/css">
	.st0{clip-path:url(#SVGID_2_);}
	.st1{fill:#409B70;}
	.st2{fill:#322153;stroke:#322153;}
</style>
<g>
	<defs>
		<rect id="SVGID_1_" width="64" height="64"/>
	</defs>
	<clipPath id="SVGID_2_">
		<use xlink:href="#SVGID_1_"  style="overflow:visible;"/>
	</clipPath>
	<g class="st0">
		<path class="st1" d="M46,26H18c-1.1,0-2-1-2-2.3V7.3C16,6,16.9,5,18,5h28c1.1,0,2,1,2,2.3v16.3C48,25,47.1,26,46,26z"/>
		<path class="st2" d="M16.5,0.5h31c2.6,0,4.7,2.1,4.7,4.7v21.4c0,1.6-0.4,3.2-1.1,4.6l0,0c-0.6,1.3-1,2.7-1,4.1v23.5
			c0,2.6-2.1,4.7-4.7,4.7H18.6c-2.6,0-4.7-2.1-4.7-4.7V35.3c0-1.4-0.3-2.9-1-4.1l0,0c-0.7-1.4-1.1-3-1.1-4.6V5.2
			C11.9,2.6,13.9,0.5,16.5,0.5z M50.1,30.7L50.1,30.7c0.6-1.3,1-2.7,1-4.1V5.2c0-2-1.6-3.6-3.6-3.6h-31c-2,0-3.6,1.6-3.6,3.6v21.4
			c0,1.4,0.3,2.9,1,4.1l0,0c0.7,1.4,1.1,3,1.1,4.6v23.5c0,2,1.6,3.6,3.6,3.6h26.8c2,0,3.6-1.6,3.6-3.6V35.3
			C49,33.7,49.4,32.2,50.1,30.7z"/>
		<path class="st2" d="M19.1,57.8v0.5h0.5h4.1h0.5l0-0.5l0-2.1l0-0.5h-0.5h-4.1h-0.5v0.5V57.8z M19.6,54.2h4.1
			c0.9,0,1.6,0.7,1.6,1.6v2.1c0,0.9-0.7,1.6-1.6,1.6h-4.1c-0.9,0-1.6-0.7-1.6-1.6v-2.1C18,54.9,18.8,54.2,19.6,54.2z"/>
		<path class="st2" d="M19.1,49.5V50h0.5h4.1h0.5l0-0.5l0-2.1l0-0.5h-0.5h-4.1h-0.5v0.5V49.5z M19.6,45.9h4.1c0.9,0,1.6,0.7,1.6,1.6
			v2.1c0,0.9-0.7,1.6-1.6,1.6h-4.1c-0.9,0-1.6-0.7-1.6-1.6v-2.1C18,46.6,18.8,45.9,19.6,45.9z"/>
		<path class="st2" d="M19.1,41.3v0.5h0.5h4.1h0.5l0-0.5l0-2.1l0-0.5h-0.5h-4.1h-0.5v0.5V41.3z M19.6,37.7h4.1
			c0.9,0,1.6,0.7,1.6,1.6v2.1c0,0.9-0.7,1.6-1.6,1.6h-4.1c-0.9,0-1.6-0.7-1.6-1.6v-2.1C18,38.4,18.8,37.7,19.6,37.7z"/>
		<path class="st2" d="M29.4,57.8v0.5h0.5h4.1h0.5l0-0.5l0-2.1l0-0.5h-0.5h-4.1h-0.5v0.5V57.8z M29.9,54.2h4.1
			c0.9,0,1.6,0.7,1.6,1.6v2.1c0,0.9-0.7,1.6-1.6,1.6h-4.1c-0.9,0-1.6-0.7-1.6-1.6v-2.1C28.4,54.9,29.1,54.2,29.9,54.2z"/>
		<path class="st2" d="M29.4,49.5V50h0.5h4.1h0.5l0-0.5l0-2.1l0-0.5h-0.5h-4.1h-0.5v0.5V49.5z M29.9,45.9h4.1c0.9,0,1.6,0.7,1.6,1.6
			v2.1c0,0.9-0.7,1.6-1.6,1.6h-4.1c-0.9,0-1.6-0.7-1.6-1.6v-2.1C28.4,46.6,29.1,45.9,29.9,45.9z"/>
		<path class="st2" d="M29.4,41.3v0.5h0.5h4.1h0.5l0-0.5l0-2.1l0-0.5h-0.5h-4.1h-0.5v0.5V41.3z M29.9,37.7h4.1
			c0.9,0,1.6,0.7,1.6,1.6v2.1c0,0.9-0.7,1.6-1.6,1.6h-4.1c-0.9,0-1.6-0.7-1.6-1.6v-2.1C28.4,38.4,29.1,37.7,29.9,37.7z"/>
		<path class="st2" d="M28.9,29.4h6.2c1.4,0,2.6,1.2,2.6,2.6s-1.2,2.6-2.6,2.6h-6.2c-1.4,0-2.6-1.2-2.6-2.6S27.5,29.4,28.9,29.4z
			 M28.9,33.5h6.2c0.8,0,1.5-0.7,1.5-1.5c0-0.8-0.7-1.5-1.5-1.5h-6.2c-0.8,0-1.5,0.7-1.5,1.5C27.4,32.8,28.1,33.5,28.9,33.5z"/>
		<path class="st2" d="M39.8,57.8v0.5h0.5h4.1h0.5l0-0.5l0-2.1l0-0.5h-0.5h-4.1h-0.5v0.5V57.8z M40.3,54.2h4.1
			c0.9,0,1.6,0.7,1.6,1.6v2.1c0,0.9-0.7,1.6-1.6,1.6h-4.1c-0.9,0-1.6-0.7-1.6-1.6v-2.1C38.7,54.9,39.4,54.2,40.3,54.2z"/>
		<path class="st2" d="M39.8,49.5V50h0.5h4.1h0.5l0-0.5l0-2.1l0-0.5h-0.5h-4.1h-0.5v0.5V49.5z M40.3,45.9h4.1c0.9,0,1.6,0.7,1.6,1.6
			v2.1c0,0.9-0.7,1.6-1.6,1.6h-4.1c-0.9,0-1.6-0.7-1.6-1.6v-2.1C38.7,46.6,39.4,45.9,40.3,45.9z"/>
		<path class="st2" d="M39.8,41.3v0.5h0.5h4.1h0.5l0-0.5l0-2.1l0-0.5h-0.5h-4.1h-0.5v0.5V41.3z M40.3,37.7h4.1
			c0.9,0,1.6,0.7,1.6,1.6v2.1c0,0.9-0.7,1.6-1.6,1.6h-4.1c-0.9,0-1.6-0.7-1.6-1.6v-2.1C38.7,38.4,39.4,37.7,40.3,37.7z"/>
		<path class="st2" d="M42.3,30.5h-0.5V31V33v0.5h0.5h2.1h0.5V33V31v-0.5h-0.5H42.3z M46,29.4v5.2h-5.2v-5.2H46z"/>
		<path class="st2" d="M21.7,33.5h0.5V33V31v-0.5h-0.5h-2.1h-0.5V31V33v0.5h0.5H21.7z M18,29.4h5.2v5.2H18V29.4z"/>
	</g>
</g>
</svg>
